;FLAVOR:Marlin
;TIME:12136
;Filament used: 5.01286m
;Layer height: 0.08
;MINX:92.711
;MINY:92.725
;MINZ:0.2
;MAXX:142.289
;MAXY:142.275
;MAXZ:15
;Generated with Cura_SteamEngine 4.10.0
M140 S60
M105
M190 S60
M104 S200
M105
M109 S200
M82 ;absolute extrusion mode
; Ender 3 Custom Start G-code
G92 E0 ; Reset Extruder
G28 ; Home all axes
G1 Z2.0 F3000 ; Move Z Axis up little to prevent scratching of Heat Bed
G1 X0.1 Y20 Z0.3 F5000.0 ; Move to start position
G1 X0.1 Y200.0 Z0.3 F1500.0 E15 ; Draw the first line
G1 X0.4 Y200.0 Z0.3 F5000.0 ; Move to side a little
G1 X0.4 Y20 Z0.3 F1500.0 E30 ; Draw the second line
G92 E0 ; Reset Extruder
G1 Z2.0 F3000 ; Move Z Axis up little to prevent scratching of Heat Bed
G1 X5 Y20 Z0.3 F5000.0 ; Move over to prevent blob squish
G92 E0
G92 E0
G1 F1500 E-6
;LAYER_COUNT:186
;LAYER:0
M107
G0 F6000 X99.799 Y100.141 Z0.2
;TYPE:SKIRT
G1 F1500 E0
G1 F1200 X101.148 Y98.866 E0.06174
G1 X101.783 Y98.327 E0.08944
G1 X103.238 Y97.22 E0.15025
G1 X103.944 Y96.742 E0.1786
G1 X105.532 Y95.788 E0.24022
G1 X106.274 Y95.395 E0.26815
G1 X107.932 Y94.628 E0.32891
G1 X108.729 Y94.311 E0.35744
G1 X110.487 Y93.722 E0.4191
G1 X111.285 Y93.501 E0.44664
G1 X113.071 Y93.107 E0.50747
G1 X113.914 Y92.969 E0.53588
G1 X115.758 Y92.77 E0.59757
G1 X116.599 Y92.725 E0.62558
G1 X118.437 Y92.726 E0.68672
G1 X119.278 Y92.772 E0.71473
G1 X121.094 Y92.97 E0.77549
G1 X121.933 Y93.108 E0.80377
G1 X123.746 Y93.509 E0.86553
G1 X124.548 Y93.732 E0.89321
G1 X126.279 Y94.314 E0.95395
G1 X127.073 Y94.63 E0.98238
G1 X128.754 Y95.409 E1.044
G1 X129.501 Y95.806 E1.07213
G1 X131.077 Y96.756 E1.13334
G1 X131.777 Y97.231 E1.16148
G1 X133.242 Y98.347 E1.22273
G1 X133.879 Y98.889 E1.25055
G1 X135.207 Y100.147 E1.31139
G1 X135.791 Y100.764 E1.33964
G1 X136.989 Y102.176 E1.40123
G1 X137.499 Y102.847 E1.42927
G1 X138.524 Y104.36 E1.49005
G1 X138.961 Y105.088 E1.51829
G1 X139.828 Y106.727 E1.57996
G1 X140.179 Y107.487 E1.6078
G1 X140.861 Y109.199 E1.6691
G1 X141.131 Y110.001 E1.69724
G1 X141.619 Y111.76 E1.75796
G1 X141.802 Y112.591 E1.78626
G1 X142.1 Y114.421 E1.84793
G1 X142.19 Y115.252 E1.87573
G1 X142.289 Y117.076 E1.93648
G1 X142.288 Y117.928 E1.96482
G1 X142.186 Y119.78 E2.02651
G1 X142.096 Y120.61 E2.05428
G1 X141.801 Y122.414 E2.11508
G1 X141.616 Y123.251 E2.14359
G1 X141.118 Y125.036 E2.20522
G1 X140.849 Y125.831 E2.23314
G1 X140.167 Y127.54 E2.29434
G1 X139.814 Y128.304 E2.32233
G1 X138.958 Y129.918 E2.3831
G1 X138.521 Y130.643 E2.41125
G1 X137.478 Y132.18 E2.47303
G1 X136.968 Y132.85 E2.50104
G1 X135.787 Y134.24 E2.5617
G1 X135.201 Y134.859 E2.59005
G1 X133.852 Y136.134 E2.65179
G1 X133.217 Y136.673 E2.67949
G1 X131.762 Y137.78 E2.7403
G1 X131.056 Y138.258 E2.76866
G1 X129.468 Y139.212 E2.83027
G1 X128.726 Y139.605 E2.8582
G1 X127.068 Y140.372 E2.91896
G1 X126.271 Y140.689 E2.94749
G1 X124.513 Y141.278 E3.00915
G1 X123.715 Y141.499 E3.03669
G1 X121.929 Y141.893 E3.09753
G1 X121.086 Y142.031 E3.12594
G1 X119.242 Y142.23 E3.18763
G1 X118.401 Y142.275 E3.21564
G1 X116.563 Y142.274 E3.27677
G1 X115.722 Y142.228 E3.30478
G1 X113.906 Y142.03 E3.36554
G1 X113.067 Y141.892 E3.39382
G1 X111.254 Y141.491 E3.45558
G1 X110.452 Y141.268 E3.48327
G1 X108.721 Y140.686 E3.54401
G1 X107.927 Y140.37 E3.57243
G1 X106.244 Y139.59 E3.63413
G1 X105.497 Y139.193 E3.66226
G1 X103.923 Y138.244 E3.72339
G1 X103.223 Y137.769 E3.75153
G1 X101.758 Y136.653 E3.81278
G1 X101.121 Y136.111 E3.8406
G1 X99.793 Y134.853 E3.90144
G1 X99.209 Y134.236 E3.9297
G1 X98.011 Y132.824 E3.99129
G1 X97.501 Y132.152 E4.01935
G1 X96.475 Y130.637 E4.0802
G1 X96.038 Y129.91 E4.10841
G1 X95.171 Y128.271 E4.17009
G1 X94.82 Y127.51 E4.19796
G1 X94.139 Y125.8 E4.25918
G1 X93.869 Y124.999 E4.28729
G1 X93.381 Y123.24 E4.34801
G1 X93.198 Y122.407 E4.37637
G1 X92.9 Y120.575 E4.43811
G1 X92.81 Y119.746 E4.46584
G1 X92.711 Y117.924 E4.52653
G1 X92.712 Y117.072 E4.55487
G1 X92.814 Y115.22 E4.61656
G1 X92.904 Y114.39 E4.64433
G1 X93.199 Y112.586 E4.70513
G1 X93.384 Y111.749 E4.73364
G1 X93.882 Y109.964 E4.79527
G1 X94.151 Y109.169 E4.82319
G1 X94.833 Y107.46 E4.88439
G1 X95.186 Y106.696 E4.91238
G1 X96.042 Y105.082 E4.97314
G1 X96.479 Y104.357 E5.0013
G1 X97.522 Y102.82 E5.06308
G1 X98.032 Y102.15 E5.09108
G1 X99.213 Y100.76 E5.15175
G1 X99.799 Y100.141 E5.1801
G0 F6000 X100.074 Y100.432
G1 F1200 X101.423 Y99.157 E5.24184
G1 X102.025 Y98.646 E5.2681
G1 X103.48 Y97.539 E5.32891
G1 X104.15 Y97.085 E5.35583
G1 X105.738 Y96.131 E5.41744
G1 X106.442 Y95.758 E5.44394
G1 X108.1 Y94.991 E5.5047
G1 X108.856 Y94.69 E5.53177
G1 X110.614 Y94.101 E5.59343
G1 X111.371 Y93.892 E5.61955
G1 X113.157 Y93.498 E5.68038
G1 X113.957 Y93.367 E5.70734
G1 X115.801 Y93.168 E5.76903
G1 X116.599 Y93.125 E5.79561
G1 X118.437 Y93.126 E5.85674
G1 X119.235 Y93.17 E5.88333
G1 X121.051 Y93.368 E5.94408
G1 X121.847 Y93.499 E5.97092
G1 X123.66 Y93.9 E6.03267
G1 X124.42 Y94.111 E6.05891
G1 X126.151 Y94.693 E6.11965
G1 X126.904 Y94.993 E6.14661
G1 X128.585 Y95.772 E6.20823
G1 X129.294 Y96.148 E6.23492
G1 X130.87 Y97.098 E6.29613
G1 X131.534 Y97.549 E6.32282
G1 X132.999 Y98.665 E6.38408
G1 X133.604 Y99.18 E6.4105
G1 X134.932 Y100.438 E6.47134
G1 X135.486 Y101.023 E6.49814
G1 X136.684 Y102.435 E6.55973
G1 X137.167 Y103.072 E6.58632
G1 X138.192 Y104.585 E6.6471
G1 X138.607 Y105.275 E6.67388
G1 X139.474 Y106.914 E6.73555
G1 X139.808 Y107.635 E6.76198
G1 X140.49 Y109.347 E6.82328
G1 X140.746 Y110.108 E6.84998
G1 X141.234 Y111.867 E6.91069
G1 X141.407 Y112.656 E6.93756
G1 X141.705 Y114.486 E6.99923
G1 X141.79 Y115.274 E7.02559
G1 X141.889 Y117.098 E7.08634
G1 X141.889 Y117.906 E7.11322
G1 X141.787 Y119.758 E7.17491
G1 X141.701 Y120.545 E7.20124
G1 X141.406 Y122.349 E7.26204
G1 X141.231 Y123.144 E7.28911
G1 X140.733 Y124.929 E7.35075
G1 X140.478 Y125.683 E7.37722
G1 X139.796 Y127.392 E7.43843
G1 X139.46 Y128.116 E7.46497
G1 X138.604 Y129.73 E7.52574
G1 X138.19 Y130.418 E7.55244
G1 X137.147 Y131.955 E7.61422
G1 X136.663 Y132.591 E7.64081
G1 X135.482 Y133.981 E7.70147
G1 X134.926 Y134.568 E7.72836
G1 X133.577 Y135.843 E7.7901
G1 X132.975 Y136.354 E7.81636
G1 X131.52 Y137.461 E7.87717
G1 X130.85 Y137.915 E7.90409
G1 X129.262 Y138.869 E7.9657
G1 X128.558 Y139.242 E7.9922
G1 X126.9 Y140.009 E8.05296
G1 X126.144 Y140.31 E8.08003
G1 X124.386 Y140.899 E8.14169
G1 X123.629 Y141.108 E8.16781
G1 X121.843 Y141.502 E8.22864
G1 X121.043 Y141.633 E8.25561
G1 X119.199 Y141.832 E8.31729
G1 X118.401 Y141.875 E8.34387
G1 X116.563 Y141.874 E8.40501
G1 X115.765 Y141.83 E8.43159
G1 X113.949 Y141.632 E8.49235
G1 X113.153 Y141.501 E8.51918
G1 X111.34 Y141.1 E8.58094
G1 X110.58 Y140.889 E8.60717
G1 X108.849 Y140.307 E8.66791
G1 X108.095 Y140.007 E8.6949
G1 X106.412 Y139.227 E8.7566
G1 X105.703 Y138.85 E8.7833
G1 X104.129 Y137.901 E8.84444
G1 X103.466 Y137.451 E8.87109
G1 X102.001 Y136.335 E8.93234
G1 X101.396 Y135.82 E8.95877
G1 X100.068 Y134.562 E9.01961
G1 X99.514 Y133.977 E9.0464
G1 X98.316 Y132.565 E9.10799
G1 X97.832 Y131.927 E9.13463
G1 X96.806 Y130.412 E9.19549
G1 X96.392 Y129.723 E9.22222
G1 X95.525 Y128.084 E9.28389
G1 X95.191 Y127.362 E9.31035
G1 X94.51 Y125.652 E9.37157
G1 X94.254 Y124.892 E9.39824
G1 X93.766 Y123.133 E9.45896
G1 X93.593 Y122.343 E9.48585
G1 X93.295 Y120.511 E9.54759
G1 X93.21 Y119.724 E9.57392
G1 X93.111 Y117.902 E9.63461
G1 X93.111 Y117.094 E9.66148
G1 X93.213 Y115.242 E9.72317
G1 X93.299 Y114.455 E9.7495
G1 X93.594 Y112.651 E9.8103
G1 X93.769 Y111.856 E9.83738
G1 X94.267 Y110.071 E9.89901
G1 X94.522 Y109.317 E9.92549
G1 X95.204 Y107.608 E9.98669
G1 X95.54 Y106.884 E10.01323
G1 X96.396 Y105.27 E10.074
G1 X96.81 Y104.582 E10.1007
G1 X97.853 Y103.045 E10.16248
G1 X98.337 Y102.409 E10.18907
G1 X99.518 Y101.019 E10.24973
G1 X100.074 Y100.432 E10.27662
G0 F6000 X100.349 Y100.723
G1 F1200 X101.698 Y99.448 E10.33836
G1 X102.268 Y98.964 E10.36323
G1 X103.723 Y97.857 E10.42404
G1 X104.356 Y97.428 E10.44947
G1 X105.944 Y96.474 E10.51109
G1 X106.61 Y96.121 E10.53616
G1 X108.268 Y95.354 E10.59692
G1 X108.983 Y95.07 E10.62251
G1 X110.741 Y94.481 E10.68417
G1 X111.457 Y94.282 E10.70889
G1 X113.243 Y93.888 E10.76972
G1 X114 Y93.764 E10.79523
G1 X115.844 Y93.565 E10.85692
G1 X116.599 Y93.525 E10.88207
G1 X118.437 Y93.526 E10.9432
G1 X119.192 Y93.567 E10.96835
G1 X121.008 Y93.765 E11.02911
G1 X121.761 Y93.889 E11.05449
G1 X123.574 Y94.29 E11.11625
G1 X124.293 Y94.49 E11.14107
G1 X126.024 Y95.072 E11.20181
G1 X126.736 Y95.356 E11.2273
G1 X128.417 Y96.135 E11.28893
G1 X129.088 Y96.491 E11.31419
G1 X130.664 Y97.441 E11.37539
G1 X131.292 Y97.868 E11.40065
G1 X132.757 Y98.984 E11.46191
G1 X133.329 Y99.47 E11.48687
G1 X134.657 Y100.728 E11.54771
G1 X135.181 Y101.281 E11.57305
G1 X136.379 Y102.693 E11.63464
G1 X136.836 Y103.296 E11.65981
G1 X137.861 Y104.809 E11.72059
G1 X138.254 Y105.462 E11.74594
G1 X139.121 Y107.101 E11.80761
G1 X139.436 Y107.783 E11.83259
G1 X140.118 Y109.495 E11.89389
G1 X140.36 Y110.215 E11.91915
G1 X140.848 Y111.974 E11.97987
G1 X141.012 Y112.72 E12.00527
G1 X141.31 Y114.55 E12.06694
G1 X141.391 Y115.296 E12.0919
G1 X141.49 Y117.12 E12.15265
G1 X141.489 Y117.884 E12.17806
G1 X141.387 Y119.736 E12.23975
G1 X141.306 Y120.481 E12.26468
G1 X141.011 Y122.285 E12.32548
G1 X140.846 Y123.036 E12.35105
G1 X140.348 Y124.821 E12.41269
G1 X140.106 Y125.534 E12.43773
G1 X139.424 Y127.243 E12.49893
G1 X139.107 Y127.929 E12.52407
G1 X138.251 Y129.543 E12.58483
G1 X137.859 Y130.194 E12.6101
G1 X136.816 Y131.731 E12.67188
G1 X136.359 Y132.332 E12.697
G1 X135.178 Y133.722 E12.75766
G1 X134.651 Y134.277 E12.78312
G1 X133.302 Y135.552 E12.84485
G1 X132.732 Y136.036 E12.86973
G1 X131.277 Y137.143 E12.93053
G1 X130.644 Y137.572 E12.95597
G1 X129.056 Y138.526 E13.01758
G1 X128.39 Y138.879 E13.04265
G1 X126.732 Y139.646 E13.10341
G1 X126.017 Y139.93 E13.129
G1 X124.259 Y140.519 E13.19067
G1 X123.543 Y140.718 E13.21538
G1 X121.757 Y141.112 E13.27621
G1 X121 Y141.236 E13.30173
G1 X119.156 Y141.435 E13.36341
G1 X118.401 Y141.475 E13.38856
G1 X116.563 Y141.474 E13.44969
G1 X115.808 Y141.433 E13.47484
G1 X113.992 Y141.235 E13.5356
G1 X113.239 Y141.111 E13.56098
G1 X111.426 Y140.71 E13.62274
G1 X110.707 Y140.51 E13.64756
G1 X108.976 Y139.928 E13.7083
G1 X108.264 Y139.644 E13.7338
G1 X106.581 Y138.864 E13.79549
G1 X105.91 Y138.508 E13.82076
G1 X104.336 Y137.559 E13.88189
G1 X103.708 Y137.132 E13.90715
G1 X102.243 Y136.016 E13.9684
G1 X101.671 Y135.53 E13.99337
G1 X100.343 Y134.272 E14.05421
G1 X99.819 Y133.719 E14.07955
G1 X98.621 Y132.307 E14.14113
G1 X98.163 Y131.703 E14.16635
G1 X97.137 Y130.188 E14.2272
G1 X96.745 Y129.536 E14.25251
G1 X95.878 Y127.897 E14.31418
G1 X95.563 Y127.214 E14.33919
G1 X94.882 Y125.504 E14.40041
G1 X94.64 Y124.785 E14.42564
G1 X94.152 Y123.026 E14.48636
G1 X93.988 Y122.279 E14.5118
G1 X93.69 Y120.447 E14.57353
G1 X93.609 Y119.703 E14.59842
G1 X93.51 Y117.881 E14.65911
G1 X93.511 Y117.116 E14.68455
G1 X93.613 Y115.264 E14.74625
G1 X93.694 Y114.519 E14.77117
G1 X93.989 Y112.715 E14.83197
G1 X94.154 Y111.964 E14.85754
G1 X94.652 Y110.179 E14.91918
G1 X94.894 Y109.466 E14.94422
G1 X95.576 Y107.757 E15.00542
G1 X95.893 Y107.071 E15.03056
G1 X96.749 Y105.457 E15.09132
G1 X97.141 Y104.806 E15.1166
G1 X98.184 Y103.269 E15.17838
G1 X98.641 Y102.668 E15.20349
G1 X99.822 Y101.278 E15.26415
G1 X100.349 Y100.723 E15.28961
G0 F6000 X100.624 Y101.013
G1 F1200 X101.973 Y99.738 E15.35135
G1 X102.51 Y99.282 E15.37478
G1 X103.965 Y98.175 E15.43559
G1 X104.562 Y97.77 E15.45958
G1 X106.15 Y96.816 E15.5212
G1 X106.778 Y96.484 E15.54482
G1 X108.436 Y95.717 E15.60558
G1 X109.11 Y95.449 E15.62971
G1 X110.868 Y94.86 E15.69137
G1 X111.543 Y94.673 E15.71467
G1 X113.329 Y94.279 E15.7755
G1 X114.043 Y94.162 E15.79956
G1 X115.887 Y93.963 E15.86125
G1 X116.599 Y93.925 E15.88497
G1 X118.437 Y93.926 E15.9461
G1 X119.148 Y93.965 E15.96978
G1 X120.964 Y94.163 E16.03054
G1 X121.674 Y94.28 E16.05447
G1 X123.487 Y94.681 E16.11623
G1 X124.165 Y94.869 E16.13963
G1 X125.896 Y95.451 E16.20037
G1 X126.568 Y95.719 E16.22444
G1 X128.249 Y96.498 E16.28606
G1 X128.881 Y96.834 E16.30986
G1 X130.457 Y97.784 E16.37107
G1 X131.049 Y98.186 E16.39487
G1 X132.514 Y99.302 E16.45612
G1 X133.054 Y99.761 E16.4797
G1 X134.382 Y101.019 E16.54054
G1 X134.876 Y101.54 E16.56442
G1 X136.074 Y102.952 E16.62601
G1 X136.505 Y103.52 E16.64972
G1 X137.53 Y105.033 E16.7105
G1 X137.9 Y105.649 E16.7344
G1 X138.767 Y107.288 E16.79607
G1 X139.064 Y107.931 E16.81963
G1 X139.746 Y109.643 E16.88092
G1 X139.975 Y110.322 E16.90476
G1 X140.463 Y112.081 E16.96547
G1 X140.617 Y112.784 E16.98941
G1 X140.915 Y114.614 E17.05108
G1 X140.991 Y115.317 E17.07459
G1 X141.09 Y117.141 E17.13535
G1 X141.09 Y117.862 E17.15933
G1 X140.988 Y119.714 E17.22102
G1 X140.911 Y120.416 E17.24451
G1 X140.616 Y122.22 E17.30531
G1 X140.46 Y122.929 E17.32945
G1 X139.962 Y124.714 E17.39109
G1 X139.735 Y125.386 E17.41468
G1 X139.053 Y127.095 E17.47588
G1 X138.754 Y127.741 E17.49956
G1 X137.898 Y129.355 E17.56032
G1 X137.528 Y129.969 E17.58417
G1 X136.485 Y131.506 E17.64595
G1 X136.054 Y132.073 E17.66964
G1 X134.873 Y133.463 E17.7303
G1 X134.376 Y133.987 E17.75432
G1 X133.027 Y135.262 E17.81606
G1 X132.49 Y135.718 E17.83949
G1 X131.035 Y136.825 E17.9003
G1 X130.438 Y137.23 E17.92429
G1 X128.85 Y138.184 E17.98591
G1 X128.222 Y138.516 E18.00953
G1 X126.564 Y139.283 E18.07029
G1 X125.89 Y139.551 E18.09442
G1 X124.132 Y140.14 E18.15608
G1 X123.457 Y140.327 E18.17938
G1 X121.671 Y140.721 E18.24021
G1 X120.957 Y140.838 E18.26428
G1 X119.113 Y141.037 E18.32596
G1 X118.401 Y141.075 E18.34968
G1 X116.563 Y141.074 E18.41081
G1 X115.852 Y141.035 E18.43449
G1 X114.036 Y140.837 E18.49525
G1 X113.326 Y140.72 E18.51919
G1 X111.513 Y140.319 E18.58094
G1 X110.835 Y140.131 E18.60434
G1 X109.104 Y139.549 E18.66508
G1 X108.432 Y139.281 E18.68915
G1 X106.749 Y138.501 E18.75084
G1 X106.116 Y138.165 E18.77468
G1 X104.542 Y137.216 E18.83581
G1 X103.951 Y136.814 E18.85958
G1 X102.486 Y135.698 E18.92084
G1 X101.946 Y135.239 E18.94441
G1 X100.618 Y133.981 E19.00525
G1 X100.124 Y133.46 E19.02913
G1 X98.926 Y132.048 E19.09072
G1 X98.494 Y131.479 E19.11448
G1 X97.468 Y129.964 E19.17534
G1 X97.099 Y129.349 E19.19919
G1 X96.232 Y127.71 E19.26086
G1 X95.934 Y127.066 E19.28446
G1 X95.253 Y125.356 E19.34568
G1 X95.025 Y124.678 E19.36947
G1 X94.537 Y122.919 E19.43019
G1 X94.383 Y122.215 E19.45416
G1 X94.085 Y120.383 E19.51589
G1 X94.009 Y119.681 E19.53938
G1 X93.91 Y117.859 E19.60007
G1 X93.91 Y117.138 E19.62405
G1 X94.012 Y115.286 E19.68574
G1 X94.089 Y114.584 E19.70923
G1 X94.384 Y112.78 E19.77002
G1 X94.54 Y112.071 E19.79417
G1 X95.038 Y110.286 E19.85581
G1 X95.265 Y109.614 E19.8794
G1 X95.947 Y107.905 E19.9406
G1 X96.246 Y107.259 E19.96427
G1 X97.102 Y105.645 E20.02504
G1 X97.472 Y105.031 E20.04888
G1 X98.515 Y103.494 E20.11066
G1 X98.946 Y102.927 E20.13435
G1 X100.127 Y101.537 E20.19502
G1 X100.624 Y101.013 E20.21904
G0 F6000 X100.898 Y101.304
G1 F1200 X102.247 Y100.029 E20.28077
G1 X102.752 Y99.601 E20.30279
G1 X104.207 Y98.494 E20.3636
G1 X104.768 Y98.113 E20.38615
G1 X106.356 Y97.159 E20.44777
G1 X106.946 Y96.847 E20.46997
G1 X108.604 Y96.08 E20.53073
G1 X109.237 Y95.828 E20.55339
G1 X110.995 Y95.239 E20.61505
G1 X111.629 Y95.064 E20.63693
G1 X113.415 Y94.67 E20.69776
G1 X114.086 Y94.56 E20.72038
G1 X115.93 Y94.361 E20.78206
G1 X116.598 Y94.325 E20.80431
G1 X118.436 Y94.326 E20.86545
G1 X119.105 Y94.363 E20.88773
G1 X120.921 Y94.561 E20.94849
G1 X121.588 Y94.67 E20.97097
G1 X123.401 Y95.071 E21.03273
G1 X124.038 Y95.248 E21.05471
G1 X125.769 Y95.83 E21.11546
G1 X126.4 Y96.082 E21.13805
G1 X128.081 Y96.861 E21.19968
G1 X128.675 Y97.176 E21.22204
G1 X130.251 Y98.126 E21.28324
G1 X130.807 Y98.504 E21.3056
G1 X132.272 Y99.62 E21.36686
G1 X132.779 Y100.051 E21.38899
G1 X134.107 Y101.309 E21.44983
G1 X134.571 Y101.799 E21.47228
G1 X135.769 Y103.211 E21.53387
G1 X136.174 Y103.745 E21.55616
G1 X137.199 Y105.258 E21.61694
G1 X137.546 Y105.836 E21.63936
G1 X138.413 Y107.475 E21.70103
G1 X138.693 Y108.08 E21.72321
G1 X139.375 Y109.792 E21.7845
G1 X139.589 Y110.429 E21.80685
G1 X140.077 Y112.188 E21.86756
G1 X140.222 Y112.849 E21.89007
