;FLAVOR:Marlin
;TIME:2270
;Filament used: 1.2858m
;Layer height: 0.2
;MINX:86.6
;MINY:86.6
;MINZ:0.2
;MAXX:148.4
;MAXY:148.4
;MAXZ:13
;Generated with Cura_SteamEngine 4.10.0
M140 S50
M105
M190 S50
M104 S200
M105
M109 S200
M82 ;absolute extrusion mode
; Ender 3 Custom Start G-code
G92 E0 ; Reset Extruder
G28 ; Home all axes
G1 Z2.0 F3000 ; Move Z Axis up little to prevent scratching of Heat Bed
G1 X0.1 Y20 Z0.3 F5000.0 ; Move to start position
G1 X0.1 Y200.0 Z0.3 F1500.0 E15 ; Draw the first line
G1 X0.4 Y200.0 Z0.3 F5000.0 ; Move to side a little
G1 X0.4 Y20 Z0.3 F1500.0 E30 ; Draw the second line
G92 E0 ; Reset Extruder
G1 Z2.0 F3000 ; Move Z Axis up little to prevent scratching of Heat Bed
G1 X5 Y20 Z0.3 F5000.0 ; Move over to prevent blob squish
G92 E0
G92 E0
G1 F2700 E-5
;LAYER_COUNT:65
;LAYER:0
M107
G0 F6000 X89.798 Y89.864 Z0.2
;TYPE:SKIRT
G1 F2700 E0
G1 F1200 X90.486 Y89.227 E0.03119
G1 X91.226 Y88.651 E0.06237
G1 X92.012 Y88.139 E0.09357
G1 X92.839 Y87.697 E0.12476
G1 X93.701 Y87.327 E0.15596
G1 X94.591 Y87.031 E0.18716
G1 X95.503 Y86.813 E0.21835
G1 X96.43 Y86.672 E0.24953
G1 X97.301 Y86.613 E0.27857
G1 X97.622 Y86.604 E0.28925
G1 X97.93 Y86.6 E0.29949
G1 X136.693 Y86.6 E1.58876
G1 X137.549 Y86.611 E1.61723
G1 X138.485 Y86.665 E1.64841
G1 X139.413 Y86.797 E1.67959
G1 X140.327 Y87.009 E1.7108
G1 X141.219 Y87.298 E1.74198
G1 X142.084 Y87.661 E1.77318
G1 X142.914 Y88.097 E1.80437
G1 X143.705 Y88.602 E1.83558
G1 X144.449 Y89.173 E1.86677
G1 X145.142 Y89.805 E1.89797
G1 X145.779 Y90.493 E1.92915
G1 X146.354 Y91.234 E1.96035
G1 X146.865 Y92.02 E1.99153
G1 X147.307 Y92.848 E2.02275
G1 X147.676 Y93.71 E2.05393
G1 X147.971 Y94.6 E2.08512
G1 X148.189 Y95.512 E2.11631
G1 X148.329 Y96.44 E2.14752
G1 X148.387 Y97.301 E2.17622
G1 X148.396 Y97.621 E2.18687
G1 X148.4 Y97.93 E2.19715
G1 X148.399 Y136.8 E3.48997
G1 X148.39 Y137.527 E3.51415
G1 X148.339 Y138.464 E3.54536
G1 X148.207 Y139.392 E3.57654
G1 X147.998 Y140.306 E3.60772
G1 X147.711 Y141.199 E3.63892
G1 X147.349 Y142.065 E3.67014
G1 X146.915 Y142.896 E3.70132
G1 X146.411 Y143.687 E3.73252
G1 X145.842 Y144.432 E3.7637
G1 X145.211 Y145.127 E3.79492
G1 X144.524 Y145.765 E3.8261
G1 X143.785 Y146.342 E3.85729
G1 X142.999 Y146.854 E3.88849
G1 X142.173 Y147.297 E3.91966
G1 X141.311 Y147.669 E3.95089
G1 X140.422 Y147.965 E3.98205
G1 X139.51 Y148.185 E4.01325
G1 X138.583 Y148.326 E4.04444
G1 X137.699 Y148.387 E4.07391
G1 X137.378 Y148.396 E4.08459
G1 X137.07 Y148.4 E4.09484
G1 X98.165 Y148.399 E5.38882
G1 X97.467 Y148.39 E5.41204
G1 X96.531 Y148.338 E5.44322
G1 X95.602 Y148.206 E5.47443
G1 X94.688 Y147.996 E5.50562
G1 X93.795 Y147.709 E5.53682
G1 X92.93 Y147.346 E5.56802
G1 X92.099 Y146.912 E5.5992
G1 X91.308 Y146.408 E5.6304
G1 X90.563 Y145.838 E5.6616
G1 X89.869 Y145.207 E5.69279
G1 X89.232 Y144.52 E5.72395
G1 X88.655 Y143.78 E5.75516
G1 X88.143 Y142.994 E5.78636
G1 X87.7 Y142.167 E5.81757
G1 X87.329 Y141.306 E5.84875
G1 X87.033 Y140.416 E5.87995
G1 X86.814 Y139.504 E5.91114
G1 X86.673 Y138.577 E5.94233
G1 X86.613 Y137.688 E5.97196
G1 X86.604 Y137.355 E5.98304
G1 X86.6 Y137.058 E5.99292
G1 X86.601 Y98.125 E7.28784
G1 X86.61 Y97.46 E7.30996
G1 X86.663 Y96.524 E7.34114
G1 X86.795 Y95.595 E7.37235
G1 X87.006 Y94.681 E7.40355
G1 X87.294 Y93.789 E7.43472
G1 X87.657 Y92.924 E7.46593
G1 X88.092 Y92.093 E7.49712
G1 X88.596 Y91.303 E7.52829
G1 X89.166 Y90.558 E7.55949
G1 X89.798 Y89.864 E7.59071
G0 F6000 X90.189 Y90.039
G1 F1200 X90.874 Y89.423 E7.62135
G1 X91.61 Y88.87 E7.65197
G1 X92.391 Y88.382 E7.6826
G1 X93.211 Y87.964 E7.71321
G1 X94.065 Y87.619 E7.74385
G1 X94.945 Y87.349 E7.77446
G1 X95.845 Y87.157 E7.80507
G1 X96.759 Y87.043 E7.8357
G1 X97.312 Y87.013 E7.85412
G1 X97.633 Y87.004 E7.8648
G1 X97.93 Y87 E7.87468
G1 X136.693 Y87 E9.16395
G1 X137.543 Y87.011 E9.19222
G1 X138.462 Y87.064 E9.22284
G1 X139.373 Y87.197 E9.25346
G1 X140.269 Y87.408 E9.28407
G1 X141.143 Y87.696 E9.31468
G1 X141.99 Y88.059 E9.34533
G1 X142.801 Y88.494 E9.37594
G1 X143.571 Y88.998 E9.40655
G1 X144.295 Y89.567 E9.43718
G1 X144.967 Y90.197 E9.46781
G1 X145.582 Y90.882 E9.49843
G1 X146.135 Y91.618 E9.52905
G1 X146.622 Y92.399 E9.55966
G1 X147.039 Y93.22 E9.59029
G1 X147.384 Y94.074 E9.62092
G1 X147.653 Y94.954 E9.65153
G1 X147.845 Y95.855 E9.68217
G1 X147.958 Y96.768 E9.71277
G1 X147.987 Y97.312 E9.73089
G1 X147.996 Y97.632 E9.74153
G1 X148 Y97.93 E9.75145
G1 X147.999 Y136.795 E11.0441
G1 X147.99 Y137.522 E11.06828
G1 X147.939 Y138.441 E11.0989
G1 X147.808 Y139.353 E11.12954
G1 X147.598 Y140.249 E11.16015
G1 X147.312 Y141.124 E11.19077
G1 X146.951 Y141.971 E11.22139
G1 X146.517 Y142.783 E11.25201
G1 X146.015 Y143.555 E11.28264
G1 X145.447 Y144.28 E11.31328
G1 X144.819 Y144.953 E11.34389
G1 X144.135 Y145.569 E11.37451
G1 X143.4 Y146.123 E11.40512
G1 X142.62 Y146.612 E11.43574
G1 X141.8 Y147.031 E11.46637
G1 X140.947 Y147.377 E11.49698
G1 X140.067 Y147.648 E11.52761
G1 X139.167 Y147.841 E11.55822
G1 X138.253 Y147.956 E11.58886
G1 X137.688 Y147.987 E11.60768
G1 X137.367 Y147.996 E11.61836
G1 X137.07 Y148 E11.62824
G1 X98.17 Y147.999 E12.92206
G1 X97.472 Y147.99 E12.94528
G1 X96.553 Y147.938 E12.97589
G1 X95.642 Y147.807 E13.00651
G1 X94.746 Y147.597 E13.03711
G1 X93.871 Y147.31 E13.06774
G1 X93.024 Y146.948 E13.09838
G1 X92.212 Y146.514 E13.129
G1 X91.441 Y146.012 E13.1596
G1 X90.716 Y145.444 E13.19023
G1 X90.043 Y144.815 E13.22087
G1 X89.428 Y144.131 E13.25147
G1 X88.874 Y143.396 E13.28208
G1 X88.386 Y142.615 E13.31271
G1 X87.967 Y141.795 E13.34334
G1 X87.621 Y140.942 E13.37395
G1 X87.351 Y140.062 E13.40457
G1 X87.158 Y139.161 E13.43522
G1 X87.044 Y138.248 E13.46582
G1 X87.013 Y137.677 E13.48484
G1 X87.004 Y137.344 E13.49592
G1 X87 Y137.058 E13.50543
G1 X87.001 Y98.131 E14.80015
G1 X87.01 Y97.466 E14.82227
G1 X87.062 Y96.546 E14.85292
G1 X87.194 Y95.635 E14.88353
G1 X87.405 Y94.739 E14.91415
G1 X87.692 Y93.864 E14.94478
G1 X88.055 Y93.018 E14.9754
G1 X88.489 Y92.206 E15.00602
G1 X88.992 Y91.435 E15.03664
G1 X89.561 Y90.711 E15.06726
G1 X90.189 Y90.039 E15.09786
G0 F6000 X90.581 Y90.217
G1 F1200 X91.262 Y89.624 E15.12789
G1 X91.994 Y89.094 E15.15795
G1 X92.769 Y88.631 E15.18797
G1 X93.582 Y88.238 E15.21801
G1 X94.427 Y87.918 E15.24806
G1 X95.296 Y87.675 E15.27807
G1 X96.184 Y87.509 E15.30812
G1 X97.323 Y87.413 E15.34614
G1 X97.644 Y87.404 E15.35682
G1 X97.93 Y87.4 E15.36633
G1 X136.693 Y87.4 E16.65559
G1 X137.537 Y87.411 E16.68367
G1 X138.439 Y87.464 E16.71372
G1 X139.332 Y87.596 E16.74374
G1 X140.21 Y87.807 E16.77378
G1 X141.066 Y88.095 E16.80382
G1 X141.893 Y88.457 E16.83384
G1 X142.685 Y88.892 E16.8639
G1 X143.436 Y89.394 E16.89394
G1 X144.139 Y89.961 E16.92398
G1 X144.789 Y90.588 E16.95402
G1 X145.381 Y91.27 E16.98406
G1 X145.911 Y92.001 E17.01409
G1 X146.373 Y92.777 E17.04412
G1 X146.766 Y93.59 E17.07416
G1 X147.084 Y94.435 E17.10419
G1 X147.327 Y95.305 E17.13423
G1 X147.492 Y96.193 E17.16427
G1 X147.587 Y97.323 E17.20199
G1 X147.596 Y97.643 E17.21264
G1 X147.6 Y97.93 E17.22218
G1 X147.599 Y136.79 E18.51467
G1 X147.59 Y137.517 E18.53885
G1 X147.539 Y138.419 E18.5689
G1 X147.408 Y139.313 E18.59895
G1 X147.199 Y140.191 E18.62897
G1 X146.913 Y141.048 E18.65902
G1 X146.552 Y141.876 E18.68906
G1 X146.12 Y142.668 E18.71907
G1 X145.619 Y143.42 E18.74912
G1 X145.053 Y144.124 E18.77917
G1 X144.428 Y144.775 E18.80918
G1 X143.747 Y145.369 E18.83924
G1 X143.016 Y145.9 E18.86929
G1 X142.242 Y146.364 E18.89931
G1 X141.429 Y146.758 E18.92935
G1 X140.585 Y147.078 E18.95938
G1 X139.715 Y147.323 E18.98944
G1 X138.828 Y147.489 E19.01945
G1 X137.677 Y147.587 E19.05787
G1 X137.356 Y147.596 E19.06855
G1 X137.07 Y147.6 E19.07807
G1 X98.175 Y147.599 E20.37172
G1 X97.477 Y147.59 E20.39494
G1 X96.576 Y147.539 E20.42495
G1 X95.682 Y147.407 E20.45501
G1 X94.804 Y147.198 E20.48503
G1 X93.947 Y146.911 E20.51509
G1 X93.12 Y146.55 E20.5451
G1 X92.327 Y146.117 E20.57515
G1 X91.576 Y145.616 E20.60518
G1 X90.872 Y145.05 E20.63522
G1 X90.221 Y144.424 E20.66526
G1 X89.628 Y143.743 E20.69529
G1 X89.098 Y143.012 E20.72533
G1 X88.634 Y142.237 E20.75537
G1 X88.24 Y141.424 E20.78542
G1 X87.92 Y140.58 E20.81544
G1 X87.676 Y139.71 E20.84549
G1 X87.51 Y138.822 E20.87554
G1 X87.413 Y137.667 E20.91409
G1 X87.404 Y137.334 E20.92517
G1 X87.4 Y137.058 E20.93435
G1 X87.401 Y98.136 E22.2289
G1 X87.41 Y97.471 E22.25102
G1 X87.462 Y96.569 E22.28107
G1 X87.594 Y95.676 E22.3111
G1 X87.804 Y94.798 E22.34112
G1 X88.091 Y93.941 E22.37118
G1 X88.453 Y93.114 E22.40121
G1 X88.886 Y92.322 E22.43123
G1 X89.388 Y91.571 E22.46127
G1 X89.955 Y90.867 E22.49134
G1 X90.581 Y90.217 E22.52135
G1 F2700 E17.52135
;MESH:test plate.stl
G0 F6000 X105.181 Y101.6
G0 X114.347 Y101.653
G0 X114.406 Y108.793
G0 X120.665 Y113.673
G0 X119.23 Y113.673
G0 X119.4 Y115.6
;TYPE:WALL-INNER
G1 F2700 E22.52135
G1 F1200 X134.6 Y115.6 E23.02691
G1 X134.6 Y100.4 E23.53246
G1 X119.4 Y100.4 E24.03802
G1 X119.4 Y115.6 E24.54357
G0 F6000 X119.8 Y115.2
;TYPE:WALL-OUTER
G1 F1200 X134.2 Y115.2 E25.02252
G1 X134.2 Y100.8 E25.50146
G1 X119.8 Y100.8 E25.98041
G1 X119.8 Y115.2 E26.45935
G1 F2700 E21.45935
G0 F6000 X119.5 Y115.2
G0 X119.21 Y115.6
G0 X115.79 Y115.6
G0 X115.6 Y115.6
;TYPE:WALL-INNER
G1 F2700 E26.45935
G1 F1200 X115.6 Y100.4 E26.96491
G1 X100.4 Y100.4 E27.47046
G1 X100.4 Y115.6 E27.97602
G1 X115.6 Y115.6 E28.48157
G0 F6000 X115.2 Y115.2
;TYPE:WALL-OUTER
G1 F1200 X115.2 Y100.8 E28.96052
G1 X100.8 Y100.8 E29.43946
G1 X100.8 Y115.2 E29.91841
G1 X115.2 Y115.2 E30.39735
G1 F2700 E25.39735
G0 F6000 X115.5 Y115.2
G0 X115.6 Y115.79
G0 X115.6 Y119.21
G0 X115.6 Y134.6
;TYPE:WALL-INNER
G1 F2700 E30.39735
G1 F1200 X115.6 Y119.4 E30.90291
G1 X100.4 Y119.4 E31.40846
G1 X100.4 Y134.6 E31.91402
G1 X115.6 Y134.6 E32.41957
G0 F6000 X115.2 Y134.2
;TYPE:WALL-OUTER
G1 F1200 X115.2 Y119.8 E32.89852
G1 X100.8 Y119.8 E33.37746
G1 X100.8 Y134.2 E33.85641
G1 X115.2 Y134.2 E34.33535
G1 F2700 E29.33535
G0 F6000 X115.5 Y134.2
G0 X115.79 Y134.6
G0 X119.21 Y134.6
G0 X119.4 Y134.6
;TYPE:WALL-INNER
G1 F2700 E34.33535
G1 F1200 X134.6 Y134.6 E34.84091
G1 X134.6 Y119.4 E35.34646
G1 X119.4 Y119.4 E35.85202
G1 X119.4 Y134.6 E36.35757
G0 F6000 X119.8 Y134.2
;TYPE:WALL-OUTER
G1 F1200 X134.2 Y134.2 E36.83652
G1 X134.2 Y119.8 E37.31546
G1 X119.8 Y119.8 E37.79441
G1 X119.8 Y134.2 E38.27335
G1 F2700 E33.27335
G0 F6000 X119.5 Y134.2
G0 X134.796 Y134.796
G0 X136.59 Y134.796
G0 X136.8 Y136.8
;TYPE:WALL-INNER
G1 F2700 E38.27335
G1 F1200 X98.2 Y136.8 E39.55719
G1 X98.2 Y98.2 E40.84104
G1 X136.8 Y98.2 E42.12488
G1 X136.8 Y136.8 E43.40872
G0 F6000 X137.2 Y137.2
;TYPE:WALL-OUTER
G1 F1200 X97.8 Y137.2 E44.71917
G1 X97.8 Y97.8 E46.02962
G1 X137.2 Y97.8 E47.34007
G1 X137.2 Y137.2 E48.65052
G0 F6000 X136.93 Y136.93
G0 X136.69 Y136.41
G0 X136.41 Y136.41
;TYPE:SKIN
G1 F1200 X98.59 Y136.41 E49.90841
G1 X98.59 Y98.59 E51.16631
G1 X136.41 Y98.59 E52.42421
G1 X136.41 Y136.41 E53.68211
G1 F2700 E48.68211
G0 F6000 X136.69 Y136.41
G0 X136.59 Y134.74
G0 X134.79 Y134.74
G0 X134.99 Y134.99
G1 F2700 E53.68211
G1 F1200 X134.99 Y119.01 E54.21361
G1 X119.01 Y119.01 E54.7451
G1 X119.01 Y134.99 E55.2766
G1 X134.99 Y134.99 E55.8081
G1 F2700 E50.8081
G0 F6000 X134.71 Y134.74
G0 X119.21 Y134.74
G0 X115.79 Y134.74
G0 X115.99 Y134.99
G1 F2700 E55.8081
G1 F1200 X115.99 Y119.01 E56.33959
G1 X100.01 Y119.01 E56.87109
G1 X100.01 Y134.99 E57.40259
G1 X115.99 Y134.99 E57.93408
G1 F2700 E52.93408
G0 F6000 X115.71 Y134.74
G0 X115.71 Y119.21
G0 X115.71 Y115.79
G0 X115.99 Y115.99
G1 F2700 E57.93408
G1 F1200 X115.99 Y100.01 E58.46558
G1 X100.01 Y100.01 E58.99708
G1 X100.01 Y115.99 E59.52858
G1 X115.99 Y115.99 E60.06007
G1 F2700 E55.06007
G0 F6000 X115.71 Y115.74
G0 X119.21 Y115.74
G0 X134.71 Y115.74
G0 X134.99 Y115.99
G1 F2700 E60.06007
G1 F1200 X134.99 Y100.01 E60.59157
G1 X119.01 Y100.01 E61.12307
G1 X119.01 Y115.99 E61.65456
G1 X134.99 Y115.99 E62.18606
G1 F2700 E57.18606
G0 F6000 X134.71 Y115.74
G0 X134.796 Y100.204
G0 X136.59 Y100.204
G0 X136.69 Y98.914
G0 X136.249 Y98.914
G1 F2700 E62.18606
G1 F1200 X136.085 Y98.75 E62.19377
G0 F6000 X135.519 Y98.75
G1 F1200 X136.249 Y99.48 E62.22811
G0 F6000 X136.249 Y100.045
G1 F1200 X134.954 Y98.75 E62.28902
G0 F6000 X134.388 Y98.75
G1 F1200 X136.249 Y100.611 E62.37656
G0 F6000 X136.249 Y101.177
G1 F1200 X135.149 Y100.076 E62.42832
G0 F6000 X134.922 Y99.849
G1 F1200 X133.822 Y98.75 E62.48004
G0 F6000 X133.257 Y98.75
G1 F1200 X134.356 Y99.849 E62.53173
G0 F6000 X133.79 Y99.849
G1 F1200 X132.691 Y98.75 E62.58343
G0 F6000 X132.125 Y98.75
G1 F1200 X133.225 Y99.849 E62.63515
G0 F6000 X132.659 Y99.849
G1 F1200 X131.56 Y98.75 E62.68684
G0 F6000 X130.994 Y98.75
G1 F1200 X132.093 Y99.849 E62.73853
G0 F6000 X131.528 Y99.849
G1 F1200 X130.428 Y98.75 E62.79025
G0 F6000 X129.862 Y98.75
G1 F1200 X130.962 Y99.849 E62.84197
G0 F6000 X130.396 Y99.849
G1 F1200 X129.297 Y98.75 E62.89366
G0 F6000 X128.731 Y98.75
G1 F1200 X129.831 Y99.849 E62.94538
G0 F6000 X129.265 Y99.849
G1 F1200 X128.165 Y98.75 E62.99709
G0 F6000 X127.6 Y98.75
G1 F1200 X128.699 Y99.849 E63.04879
G0 F6000 X128.134 Y99.849
G1 F1200 X127.034 Y98.75 E63.10051
G0 F6000 X126.468 Y98.75
G1 F1200 X127.568 Y99.849 E63.15222
G0 F6000 X127.002 Y99.849
G1 F1200 X125.903 Y98.75 E63.20392
G0 F6000 X125.337 Y98.75
G1 F1200 X126.437 Y99.849 E63.25563
G0 F6000 X125.871 Y99.849
G1 F1200 X124.771 Y98.75 E63.30735
G0 F6000 X124.206 Y98.75
G1 F1200 X125.305 Y99.849 E63.35904
G0 F6000 X124.74 Y99.849
G1 F1200 X123.64 Y98.75 E63.41076
G0 F6000 X123.074 Y98.75
G1 F1200 X124.174 Y99.849 E63.46248
G0 F6000 X123.608 Y99.849
G1 F1200 X122.509 Y98.75 E63.51417
G0 F6000 X121.943 Y98.75
G1 F1200 X123.042 Y99.849 E63.56587
G0 F6000 X122.477 Y99.849
G1 F1200 X121.377 Y98.75 E63.61758
G0 F6000 X120.812 Y98.75
G1 F1200 X121.911 Y99.849 E63.66928
G0 F6000 X121.345 Y99.849
G1 F1200 X120.246 Y98.75 E63.72097
G0 F6000 X119.68 Y98.75
G1 F1200 X120.78 Y99.849 E63.77269
G0 F6000 X120.214 Y99.849
G1 F1200 X119.114 Y98.75 E63.8244
G0 F6000 X118.549 Y98.75
G1 F1200 X119.648 Y99.849 E63.8761
G0 F6000 X119.083 Y99.849
G1 F1200 X117.983 Y98.75 E63.92781
G0 F6000 X117.417 Y98.75
G1 F1200 X118.849 Y100.182 E63.99517
G0 F6000 X118.849 Y100.747
G1 F1200 X116.852 Y98.75 E64.0891
G0 F6000 X116.286 Y98.75
G1 F1200 X118.849 Y101.313 E64.20966
G0 F6000 X118.849 Y101.879
G1 F1200 X115.72 Y98.75 E64.35684
G0 F6000 X115.155 Y98.75
G1 F1200 X118.849 Y102.444 E64.53059
G0 F6000 X118.849 Y103.01
G1 F1200 X116.149 Y100.31 E64.65759
G0 F6000 X116.149 Y100.875
G1 F1200 X118.849 Y103.576 E64.78462
G0 F6000 X118.849 Y104.141
G1 F1200 X116.149 Y101.441 E64.91162
G0 F6000 X116.149 Y102.007
G1 F1200 X118.849 Y104.707 E65.03862
G0 F6000 X118.849 Y105.273
G1 F1200 X116.149 Y102.572 E65.16564
G0 F6000 X116.149 Y103.138
G1 F1200 X118.849 Y105.839 E65.29266
G0 F6000 X118.849 Y106.404
G1 F1200 X116.149 Y103.704 E65.41966
G0 F6000 X116.149 Y104.269
G1 F1200 X118.849 Y106.97 E65.54668
G0 F6000 X118.849 Y107.536
G1 F1200 X116.149 Y104.835 E65.67371
G0 F6000 X116.149 Y105.401
G1 F1200 X118.849 Y108.101 E65.80071
G0 F6000 X118.849 Y108.667
G1 F1200 X116.149 Y105.967 E65.92771
G0 F6000 X116.149 Y106.532
G1 F1200 X118.849 Y109.233 E66.05473
G0 F6000 X118.849 Y109.798
G1 F1200 X116.149 Y107.098 E66.18173
G0 F6000 X116.149 Y107.664
G1 F1200 X118.849 Y110.364 E66.30873
G0 F6000 X118.849 Y110.93
G1 F1200 X116.149 Y108.229 E66.43575
G0 F6000 X116.149 Y108.795
G1 F1200 X118.849 Y111.495 E66.56275
G0 F6000 X118.849 Y112.061
G1 F1200 X116.149 Y109.361 E66.68975
G0 F6000 X116.149 Y109.926
G1 F1200 X118.849 Y112.627 E66.81678
G0 F6000 X118.849 Y113.192
G1 F1200 X116.149 Y110.492 E66.94378
G0 F6000 X116.149 Y111.058
G1 F1200 X118.849 Y113.758 E67.07078
G0 F6000 X118.849 Y114.324
G1 F1200 X116.149 Y111.623 E67.1978
G0 F6000 X116.149 Y112.189
G1 F1200 X118.849 Y114.89 E67.32482
G0 F6000 X118.849 Y115.455
G1 F1200 X116.149 Y112.755 E67.45182
G0 F6000 X116.149 Y113.32
G1 F1200 X118.849 Y116.021 E67.57884
G0 F6000 X118.978 Y116.15
G1 F1200 X121.678 Y118.849 E67.70582
G0 F6000 X122.243 Y118.849
G1 F1200 X119.544 Y116.15 E67.83277
G0 F6000 X120.109 Y116.15
G1 F1200 X122.809 Y118.849 E67.95975
G0 F6000 X123.375 Y118.849
G1 F1200 X120.675 Y116.15 E68.08673
